X:4
T:The Waterfall
R:reel
S:Silver Apple News, 2004
D:Ian MacDougall, From Foot Cape 
Z:Paul Stewart Cranford (P.S.C.), <http://www.cranfordpub.com>
Q:333
L:1/8
M:C|
K:D
B|A/A/A FA d2 AF|E/E/E ed cABc|d2 AF G2 Bd|A/A/A ge fdd:|
||g|f2 Ad fagf|e2 Ac egfe|d2 FA dfed|g2 fe faag|
f/f/f Ad fagf|e/e/e Ac egfe|d/d/d FA dfed|B/B/B ge fdd|]
